X:26
T: The Boy In The Gap
R: reel
M: 4/4
L: 1/8
K: Em
|:D2FA dedc|A2GE cEGE|D2FA dedc| A2GE EDD2:||
|f2fg fed2|e2 fd ed^cB|AB^cd e2cd|eaag eaag|
|f2fg fedf|egfd ed^cB|AB^cd e2dB| A2GE ED D2|| 

